svg/azure-subscription.svg

<?xml version="1.0" encoding="UTF-8"?>
<svg xmlns="http://www.w3.org/2000/svg" xmlns:xlink="http://www.w3.org/1999/xlink" width="20.462" height="32" viewBox="0 0 20.462 32">
<defs>
<filter id="filter-remove-color" x="0%" y="0%" width="100%" height="100%">
<feColorMatrix color-interpolation-filters="sRGB" values="0 0 0 0 1 0 0 0 0 1 0 0 0 0 1 0 0 0 1 0" />
</filter>
<radialGradient id="radial-pattern-0" gradientUnits="userSpaceOnUse" cx="-36.630001" cy="17.120001" fx="-36.630001" fy="17.120001" r="11.18" gradientTransform="matrix(1.60684, 0, 0, 1.60684, 67.281998, -12.137)">
<stop offset="0.27" stop-color="rgb(100%, 84.313725%, 5.882353%)" stop-opacity="1"/>
<stop offset="0.49" stop-color="rgb(100%, 79.607843%, 7.058824%)" stop-opacity="1"/>
<stop offset="0.88" stop-color="rgb(99.607843%, 67.45098%, 9.803922%)" stop-opacity="1"/>
<stop offset="1" stop-color="rgb(99.607843%, 63.137255%, 10.588235%)" stop-opacity="1"/>
</radialGradient>
<clipPath id="clip-0">
<path clip-rule="nonzero" d="M 0 0 L 20.5 0 L 20.5 32 L 0 32 Z M 0 0 "/>
</clipPath>
<image id="source-17" x="0" y="0" width="21" height="32" xlink:href="data:image/png;base64,iVBORw0KGgoAAAANSUhEUgAAABUAAAAgCAYAAAD9oDOIAAAABmJLR0QA/wD/AP+gvaeTAAAAJklEQVRIiWNgGAWjYBSMglEwCugCGEnVwEQLV4waOmroUDB0hAMAPp0AFDM+FKUAAAAASUVORK5CYII="/>
<mask id="mask-0">
<g filter="url(#filter-remove-color)">
<use xlink:href="#source-17"/>
</g>
</mask>
<clipPath id="clip-1">
<rect x="0" y="0" width="21" height="32"/>
</clipPath>
<g id="source-16" clip-path="url(#clip-1)">
<path fill-rule="nonzero" fill="rgb(100%, 57.647059%, 0%)" fill-opacity="1" d="M 8.71875 28.222656 C 8.851562 28.300781 9.015625 28.304688 9.148438 28.230469 C 9.28125 28.15625 9.367188 28.015625 9.367188 27.863281 L 9.367188 20.257812 C 9.367188 20.109375 9.300781 19.96875 9.179688 19.878906 C 9.046875 19.785156 8.871094 19.78125 8.730469 19.863281 C 8.589844 19.941406 8.503906 20.097656 8.511719 20.257812 L 8.511719 27.863281 C 8.519531 28.007812 8.597656 28.140625 8.71875 28.222656 M 8.71875 28.222656 "/>
</g>
<clipPath id="clip-2">
<rect x="0" y="0" width="21" height="32"/>
</clipPath>
<g id="source-19" clip-path="url(#clip-2)">
<g clip-path="url(#clip-0)">
<g mask="url(#mask-0)">
<use xlink:href="#source-16"/>
</g>
</g>
</g>
<clipPath id="clip-3">
<path clip-rule="nonzero" d="M 0 0 L 20.5 0 L 20.5 32 L 0 32 Z M 0 0 "/>
</clipPath>
<image id="source-34" x="0" y="0" width="21" height="32" xlink:href="data:image/png;base64,iVBORw0KGgoAAAANSUhEUgAAABUAAAAgCAYAAAD9oDOIAAAABmJLR0QA/wD/AP+gvaeTAAAANUlEQVRIie3OoREAIBDEwEAHXx4dUhw9gHoHDgQzWZkzB5LuKZtWgQbEYU8TGEB/8EuSpH8sT0kDAqE6kZ8AAAAASUVORK5CYII="/>
<mask id="mask-1">
<g filter="url(#filter-remove-color)">
<use xlink:href="#source-34"/>
</g>
</mask>
<clipPath id="clip-4">
<rect x="0" y="0" width="21" height="32"/>
</clipPath>
<g id="source-33" clip-path="url(#clip-4)">
<path fill-rule="nonzero" fill="rgb(100%, 57.647059%, 0%)" fill-opacity="1" d="M 5.964844 9.828125 L 14.890625 9.828125 C 15.191406 9.828125 15.4375 10.074219 15.4375 10.375 L 15.4375 10.460938 C 15.4375 10.761719 15.191406 11.007812 14.890625 11.007812 L 5.964844 11.007812 C 5.664062 11.007812 5.417969 10.761719 5.417969 10.460938 L 5.417969 10.375 C 5.417969 10.074219 5.664062 9.828125 5.964844 9.828125 M 5.964844 9.828125 "/>
</g>
<clipPath id="clip-5">
<rect x="0" y="0" width="21" height="32"/>
</clipPath>
<g id="source-36" clip-path="url(#clip-5)">
<g clip-path="url(#clip-3)">
<g mask="url(#mask-1)">
<use xlink:href="#source-33"/>
</g>
</g>
</g>
<clipPath id="clip-6">
<path clip-rule="nonzero" d="M 0 0 L 20.5 0 L 20.5 32 L 0 32 Z M 0 0 "/>
</clipPath>
<image id="source-51" x="0" y="0" width="21" height="32" xlink:href="data:image/png;base64,iVBORw0KGgoAAAANSUhEUgAAABUAAAAgCAYAAAD9oDOIAAAABmJLR0QA/wD/AP+gvaeTAAAAM0lEQVRIie3OoQGAMADEwIMNWI8FWY4disJRWUVO5s2T5I+2j7bjxDHZXwM3rgW/kiR5AFCtAwITAPsfAAAAAElFTkSuQmCC"/>
<mask id="mask-2">
<g filter="url(#filter-remove-color)">
<use xlink:href="#source-51"/>
</g>
</mask>
<clipPath id="clip-7">
<rect x="0" y="0" width="21" height="32"/>
</clipPath>
<g id="source-50" clip-path="url(#clip-7)">
<path fill-rule="nonzero" fill="rgb(100%, 57.647059%, 0%)" fill-opacity="1" d="M 5.964844 11.742188 L 14.890625 11.742188 C 15.191406 11.742188 15.4375 11.988281 15.4375 12.289062 L 15.4375 12.375 C 15.4375 12.675781 15.191406 12.921875 14.890625 12.921875 L 5.964844 12.921875 C 5.664062 12.921875 5.417969 12.675781 5.417969 12.375 L 5.417969 12.289062 C 5.417969 11.988281 5.664062 11.742188 5.964844 11.742188 M 5.964844 11.742188 "/>
</g>
<clipPath id="clip-8">
<rect x="0" y="0" width="21" height="32"/>
</clipPath>
<g id="source-53" clip-path="url(#clip-8)">
<g clip-path="url(#clip-6)">
<g mask="url(#mask-2)">
<use xlink:href="#source-50"/>
</g>
</g>
</g>
</defs>
<path fill-rule="nonzero" fill="url(#radial-pattern-0)" d="M 18.871094 12.804688 C 19.535156 12.140625 19.910156 11.242188 19.910156 10.300781 C 19.910156 9.359375 19.535156 8.457031 18.871094 7.792969 L 12.785156 1.691406 C 11.40625 0.3125 9.171875 0.3125 7.792969 1.691406 L 1.710938 7.792969 C 0.34375 9.183594 0.34375 11.414062 1.710938 12.804688 L 6.835938 17.929688 C 7.019531 18.121094 7.121094 18.371094 7.128906 18.632812 L 7.128906 28.070312 C 7.125 28.386719 7.246094 28.695312 7.46875 28.921875 L 9.777344 31.230469 C 9.921875 31.386719 10.128906 31.476562 10.34375 31.476562 C 10.554688 31.476562 10.761719 31.386719 10.90625 31.230469 L 14.460938 27.675781 C 14.550781 27.59375 14.601562 27.476562 14.601562 27.351562 C 14.601562 27.230469 14.550781 27.113281 14.460938 27.027344 L 13.519531 26.070312 C 13.421875 25.976562 13.367188 25.84375 13.371094 25.710938 C 13.371094 25.574219 13.421875 25.445312 13.519531 25.351562 L 14.460938 24.394531 C 14.550781 24.308594 14.601562 24.191406 14.601562 24.070312 C 14.601562 23.945312 14.550781 23.828125 14.460938 23.742188 L 13.46875 22.734375 C 13.371094 22.644531 13.316406 22.515625 13.316406 22.382812 C 13.316406 22.253906 13.371094 22.125 13.46875 22.035156 L 14.496094 21.027344 C 14.585938 20.941406 14.636719 20.824219 14.636719 20.699219 C 14.636719 20.578125 14.585938 20.460938 14.496094 20.375 L 13.179688 19.042969 L 13.179688 18.5625 Z M 10.324219 3.164062 C 10.859375 3.167969 11.371094 3.382812 11.746094 3.761719 C 12.121094 4.144531 12.328125 4.65625 12.324219 5.191406 C 12.320312 6.304688 11.414062 7.203125 10.300781 7.203125 C 9.1875 7.199219 8.289062 6.292969 8.289062 5.179688 C 8.285156 4.644531 8.496094 4.132812 8.871094 3.753906 C 9.246094 3.375 9.757812 3.164062 10.289062 3.164062 Z M 10.324219 3.164062 "/>
<use xlink:href="#source-19"/>
<use xlink:href="#source-36"/>
<use xlink:href="#source-53"/>
</svg>

<svg role="img" viewBox="0 0 20.462 32" height="32" width="20.462" xmlns="http://www.w3.org/2000/svg"><defs><clipPath id="367__347__324__clip-0"><path d="M0 0h20.5v32H0Zm0 0"/></clipPath><clipPath id="368__348__325__clip-1"><path d="M0 0h21v32H0z"/></clipPath><clipPath id="369__349__327__clip-3"><path d="M0 0h20.5v32H0Zm0 0"/></clipPath><clipPath id="370__350__328__clip-4"><path d="M0 0h21v32H0z"/></clipPath><clipPath id="371__351__330__clip-6"><path d="M0 0h20.5v32H0Zm0 0"/></clipPath><clipPath id="372__352__331__clip-7"><path d="M0 0h21v32H0z"/></clipPath><g clip-path="url(#368__348__325__clip-1)" id="373__353__333__source-16"><path d="M8.719 28.223a.433.433 0 0 0 .43.007.424.424 0 0 0 .218-.367v-7.605a.468.468 0 0 0-.187-.38.416.416 0 0 0-.45-.015.432.432 0 0 0-.218.395v7.605a.467.467 0 0 0 .207.36m0 0" fill="rgb(100%, 57.647059%, 0%)"/></g><g clip-path="url(#367__347__324__clip-0)" id="374__354__334__source-19" mask="url(#375__355__335__mask-0)"><use href="#373__353__333__source-16"/></g><g clip-path="url(#370__350__328__clip-4)" id="376__356__336__source-33"><path d="M5.965 9.828h8.926c.3 0 .547.246.547.547v.086a.55.55 0 0 1-.547.547H5.965a.548.548 0 0 1-.547-.547v-.086c0-.3.246-.547.547-.547m0 0" fill="rgb(100%, 57.647059%, 0%)"/></g><g clip-path="url(#369__349__327__clip-3)" id="377__357__337__source-36" mask="url(#378__358__338__mask-1)"><use href="#376__356__336__source-33"/></g><g clip-path="url(#372__352__331__clip-7)" id="379__359__339__source-50"><path d="M5.965 11.742h8.926c.3 0 .547.246.547.547v.086a.55.55 0 0 1-.547.547H5.965a.548.548 0 0 1-.547-.547v-.086c0-.3.246-.547.547-.547m0 0" fill="rgb(100%, 57.647059%, 0%)"/></g><g clip-path="url(#371__351__330__clip-6)" id="380__360__340__source-53" mask="url(#381__361__341__mask-2)"><use href="#379__359__339__source-50"/></g><image height="32" href="data:image/png;base64,iVBORw0KGgoAAAANSUhEUgAAABUAAAAgCAYAAAD9oDOIAAAABmJLR0QA/wD/AP+gvaeTAAAAKUlEQVRIiWNgGAWjYBSMglEwCugCGEnVwDRQhpIMRg0dyYYy08LQEQ4AQ8kAFoLiyUAAAAAASUVORK5CYII=" id="382__362__342__source-17" width="21" x="0" y="0"/><image height="32" href="data:image/png;base64,iVBORw0KGgoAAAANSUhEUgAAABUAAAAgCAYAAAD9oDOIAAAABmJLR0QA/wD/AP+gvaeTAAAANElEQVRIie3JsREAEBQE0TWjgV+dGvWmB5IvI5PZF+3cgaR3ymGrQAPi8m8TGEDPliTpTwtVvgQCDfgYPQAAAABJRU5ErkJggg==" id="383__363__343__source-34" width="21" x="0" y="0"/><image height="32" href="data:image/png;base64,iVBORw0KGgoAAAANSUhEUgAAABUAAAAgCAYAAAD9oDOIAAAABmJLR0QA/wD/AP+gvaeTAAAAOElEQVRIie3MwQkAIBDEwAg2YHeWaHH2cDZwoOLHR+a5sAFJnyuXeyZOzhXoQNvEA5jAyMKSJD1aaaEFA5odaJUAAAAASUVORK5CYII=" id="384__364__344__source-51" width="21" x="0" y="0"/><mask id="375__355__335__mask-0"><g filter="url(#385__365__345__filter-remove-color)"><use href="#382__362__342__source-17"/></g></mask><mask id="378__358__338__mask-1"><g filter="url(#385__365__345__filter-remove-color)"><use href="#383__363__343__source-34"/></g></mask><mask id="381__361__341__mask-2"><g filter="url(#385__365__345__filter-remove-color)"><use href="#384__364__344__source-51"/></g></mask><radialGradient cx="-36.63" cy="17.12" fx="-36.63" fy="17.12" gradientTransform="translate(67.282 -12.137)scale(1.60684)" gradientUnits="userSpaceOnUse" id="386__366__346__radial-pattern-0" r="11.18"><stop offset=".27" stop-color="rgb(100%, 84.313725%, 5.882353%)"/><stop offset=".49" stop-color="rgb(100%, 79.607843%, 7.058824%)"/><stop offset=".88" stop-color="rgb(99.607843%, 67.45098%, 9.803922%)"/><stop offset="1" stop-color="rgb(99.607843%, 63.137255%, 10.588235%)"/></radialGradient><filter height="100%" id="385__365__345__filter-remove-color" width="100%" x="0%" y="0%"><feColorMatrix color-interpolation-filters="sRGB" values="0 0 0 0 1 0 0 0 0 1 0 0 0 0 1 0 0 0 1 0"/></filter></defs><path d="M18.871 12.805a3.546 3.546 0 0 0 1.04-2.504c0-.942-.376-1.844-1.04-2.508l-6.086-6.102a3.53 3.53 0 0 0-4.992 0L1.711 7.793a3.575 3.575 0 0 0 0 5.012l5.125 5.125c.184.191.285.441.293.703v9.437c-.004.317.117.625.34.852l2.308 2.308a.774.774 0 0 0 1.13 0l3.554-3.554c.09-.082.14-.2.14-.324a.45.45 0 0 0-.14-.325l-.941-.957a.484.484 0 0 1-.149-.36c0-.136.05-.265.149-.358l.94-.957a.45.45 0 0 0 0-.653l-.991-1.008a.479.479 0 0 1 0-.699l1.027-1.008a.452.452 0 0 0 0-.652l-1.316-1.332v-.48Zm-8.547-9.64a2.021 2.021 0 0 1 1.422.597c.375.383.582.894.578 1.43a2.021 2.021 0 0 1-2.023 2.011A2.021 2.021 0 0 1 8.289 5.18a2.006 2.006 0 0 1 .582-1.426c.375-.379.887-.59 1.418-.59Zm0 0" fill="url(#386__366__346__radial-pattern-0)"/><use href="#374__354__334__source-19"/><use href="#377__357__337__source-36"/><use href="#380__360__340__source-53"/></svg>
